X:1
T:Polka
C:Trad. centre France, fichier abc : Bernard Loffet
L:1/8
Q:510
K:G
M:4/4
|: [d2G,,2] [d2G,2] [d2G,,2] [d2G,2] | [dG,,]e [dG,]c [B2G,,2] G,2 | [GG,,]A [B2G,2] [GG,,]A [B2G,2] | \
 [c2D,,2] [A2D,2] [A2D,,2] D,2 | [c2D,,2] [c2D,2] [c2D,,2] [c2D,2] | [cD,,]d [cD,]B [A2D,,2] D,2 | \
 [FD,,]G [A2D,2] [FD,,]G [A2D,2] | [B2G,,2] [G2G,2] [G2G,,2] G,2 :|: [D2G,,2] [G2G,2] [B2G,,2] [dG,]c | \
 [B2G,,2] [G2G,2] [B2G,,2] [dG,]c | [B2G,,2] [G2G,2] [A2D,,2] [AD,]c | [A2D,,2] [F2D,2] [G2G,,2] [FD,]E | \
 [D2G,,2] [G2G,2] [B2G,,2] [dG,]c | [B2G,,2] [G2G,2] [B2G,,2] [dG,]c | [B2G,,2] [G2G,2] [A2D,,2] [AD,]c | \
 [A2D,,2] [F2D,2] [G2G,,2] G,2 :| \
W:Created with TablEdit http://www.tabledit.com/ by Bernard Loffet
